!!!COM: Robert Schumann
!!!CNT: Deutsch
!!!TXO: Deutsch
!!!OTL: Der Himmel hat eine Tra2ne geweint
!!!LYR: Ru2ckert
!!!OPR: Zwo2lf Gedichte aus F. Ru2ckerts Liebesfru2hling
!!!OPS: Op.37
!!!ONM: No. 1
!!!ENC: Ben Fuhrman
!!!YOR: Schumann Lieder - Max Friedlaender, ed.,
!!!YOR: New York: C. F. Peters, Vol. 2
!!!ODT: 1841/
!!NB: Vocal melody and text only encoded.
!!NB: First instance of melodic material only encoded.
**kern	**silbe
*clefG2	*
*k[f#]	*
*M4/4	*
!!created: 07/12/06 9:27
!!proofed and posted: 07/12/06 9:30
!!edit time: 30 minutes
=1	=1
2r	.
4r	.
8r	.
{8b	{Der
=2	=2
4.b	Him-
8b	-mel
4a	hat
8b	ei-
8b	-ne
=3	=3
4cc	Tra2-
8cc	-ne
8cc	ge-
4.a	-weint,
8a	die
=4	=4
4g	hat
8g	sich
8g	ins
4.a	Meer
8b	ver-
=5	=5
4b	-lie-
8a	-ren
8a	ge-
4a}	-meint.}
8r	.
{8a	{Die
=6	=6
4.b-	Mu-
8fn	-schel
4.g	kam
8g	und
=7	=7
4.b-	schloss
8fn	sie
2g	ein:
=8	=8
4b-	Du
8fn	sollst
8fn	nun
4.g	mei-
8g	-ne
=9	=9
4.b-	Per-
8fn	-le
2g	sein.
=10	=10
4b-	Du
8b-	sollst
8b-	nicht
4.a	vor
8ee-	den
=11	=11
4.dd	Wo-
8g	-gen
4g	za-
4f#	-gen,
=12	=12
4g	ich
8g	will
8g	hin-
4.f	-durch
8cc	dich
=13	=13
4.b-	ru-
8c#	-hig
4en	tra-
4d}	-gen.}
!! rest to measure 15
=15	=15
{4bn	{O
8bn	du
8bn	mein
(4.a	Schmerz,
8bn)	|
=16	=16
4cc	du
8.cc	mei-
16a	-ne
4.f	Lust,
8d	du
=17	=17
4.g	Him-
8b	-mels-
(8dd	-tra2n'
4cc)	|
8b	in
=18	=18
4.b	mei-
8a	-ner
4a}	Brust!}
8r	.
{8a	{Gib,
=19	=19
4.b	Him-
8b	-mel,
4cc	dass
8cc	ich
8cc	in
=20	=20
4cc#	rei-
8cc#	-nem
8cc#	Ge-
4dd	-mu2-
8g	-te
8g	den
=21	=21
[2ee	rein-
8ee]	|
8ee	-sten
8dd	dei-
8cc	-ner
=22	=22
4.b	Trop-
8dd	-fen
4dd	hu2-
8cc	-te,
8ee-	den
=23	=23
4.dd	rein-
8cc	-sten,
8b	rein-
8b	-sten
8a	dei-
8g	-ner
=24	=24
[1a	Trop-
=25	=25
(2.a]	|
8b)	|
8f	-fen
=26	=26
4a	hu2-
4g}	-te.}
2r	.
==	==
*-	*-
